flaticon/file-type/xml.svg

<svg xmlns="http://www.w3.org/2000/svg" width="32" height="32" viewBox="0 0 24 24">
    <path d="M 21.082031 5.042969 L 16.265625 0.226562 C 16.121094 0.0820312 15.925781 0 15.71875 0 L 3.707031 0 C 3.21875 0 2.691406 0.378906 2.691406 1.210938 L 2.691406 23.171875 C 2.691406 23.519531 3.039062 23.855469 3.449219 23.960938 C 3.46875 23.96875 3.492188 23.976562 3.511719 23.980469 C 3.578125 23.992188 3.644531 24 3.707031 24 L 20.292969 24 C 20.355469 24 20.421875 23.992188 20.488281 23.980469 C 20.507812 23.976562 20.53125 23.96875 20.550781 23.960938 C 20.960938 23.855469 21.308594 23.519531 21.308594 23.171875 L 21.308594 5.785156 C 21.308594 5.464844 21.273438 5.230469 21.082031 5.042969 Z M 16.34375 1.476562 L 19.835938 4.964844 L 16.34375 4.964844 Z M 3.707031 23.171875 C 3.679688 23.171875 3.652344 23.160156 3.625 23.152344 C 3.5625 23.121094 3.515625 23.058594 3.515625 22.980469 L 3.515625 16.964844 L 20.484375 16.964844 L 20.484375 22.980469 C 20.484375 23.058594 20.4375 23.121094 20.375 23.152344 C 20.347656 23.160156 20.320312 23.171875 20.292969 23.171875 Z M 3.515625 16.136719 L 3.515625 1.210938 C 3.515625 1.121094 3.53125 0.828125 3.707031 0.828125 L 15.542969 0.828125 C 15.527344 0.878906 15.515625 0.933594 15.515625 0.988281 L 15.515625 5.792969 L 20.320312 5.792969 C 20.375 5.792969 20.429688 5.78125 20.480469 5.769531 C 20.480469 5.773438 20.484375 5.777344 20.484375 5.785156 L 20.484375 16.136719 Z M 3.515625 16.136719"/>
    <path d="M8.785156 18.175781L7.984375 19.871094 7.929688 19.871094 7.195312 18.175781 6.417969 18.175781 7.542969 20.320312 6.488281 22.34375 7.273438 22.34375 7.984375 20.773438 8.042969 20.773438 8.703125 22.34375 9.492188 22.34375 8.433594 20.320312 9.558594 18.175781zM12.421875 21.027344L11.183594 18.175781 10.492188 18.175781 10.492188 22.34375 11.183594 22.34375 11.183594 19.476562 12.121094 21.796875 12.722656 21.796875 13.65625 19.476562 13.65625 22.34375 14.34375 22.34375 14.34375 18.175781 13.65625 18.175781zM16.082031 18.175781L15.390625 18.175781 15.390625 22.34375 18 22.34375 18 21.828125 16.082031 21.828125zM9.601562 7.15625C9.441406 6.992188 9.179688 6.992188 9.019531 7.15625L6.535156 9.636719C6.375 9.800781 6.375 10.0625 6.535156 10.222656L9.019531 12.707031C9.097656 12.785156 9.203125 12.828125 9.308594 12.828125 9.417969 12.828125 9.523438 12.785156 9.601562 12.707031 9.765625 12.542969 9.765625 12.28125 9.601562 12.121094L7.414062 9.929688 9.601562 7.742188C9.765625 7.578125 9.765625 7.316406 9.601562 7.15625zM14.570312 7.15625C14.40625 6.992188 14.144531 6.992188 13.984375 7.15625 13.820312 7.316406 13.820312 7.578125 13.984375 7.742188L16.171875 9.929688 13.984375 12.121094C13.820312 12.28125 13.820312 12.542969 13.984375 12.707031 14.0625 12.785156 14.171875 12.828125 14.277344 12.828125 14.382812 12.828125 14.488281 12.785156 14.570312 12.707031L17.050781 10.222656C17.214844 10.0625 17.214844 9.800781 17.050781 9.636719zM13.171875 5.816406C12.957031 5.738281 12.71875 5.855469 12.644531 6.070312L10.160156 13.105469C10.085938 13.320312 10.199219 13.554688 10.414062 13.632812 10.460938 13.648438 10.507812 13.65625 10.550781 13.65625 10.722656 13.65625 10.882812 13.546875 10.941406 13.378906L13.425781 6.34375C13.5 6.128906 13.386719 5.894531 13.171875 5.816406zM13.171875 5.816406"/>
</svg>

<svg xmlns="http://www.w3.org/2000/svg" width="32" height="32" viewBox="0 0 24 24">
    <path d="M21.082 5.043L16.266.227A.771.771 0 0 0 15.719 0H3.707c-.488 0-1.016.379-1.016 1.21v21.962c0 .348.348.683.758.789.02.008.043.016.063.02.066.011.133.019.195.019h16.586c.062 0 .129-.008.195-.02a.384.384 0 0 0 .063-.02c.41-.105.758-.44.758-.788V5.785c0-.32-.036-.555-.227-.742zm-4.738-3.566l3.492 3.488h-3.492zM3.707 23.172c-.027 0-.055-.012-.082-.02a.192.192 0 0 1-.11-.172v-6.015h16.97v6.015c0 .079-.047.141-.11.172-.027.008-.055.02-.082.02zm-.191-7.035V1.21c0-.09.015-.383.191-.383h11.836a.55.55 0 0 0-.027.16v4.805h4.804a.72.72 0 0 0 .16-.023c0 .003.004.007.004.015v10.352zm0 0"/>
    <path d="M8.785 18.176l-.8 1.695H7.93l-.735-1.695h-.777l1.125 2.144-1.055 2.024h.785l.711-1.57h.059l.66 1.57h.79l-1.06-2.024 1.126-2.144zm0 0M12.422 21.027l-1.238-2.851h-.692v4.168h.692v-2.867l.937 2.32h.602l.933-2.32v2.867h.688v-4.168h-.688zm0 0M16.082 18.176h-.691v4.168H18v-.516h-1.918zm0 0M9.602 7.156a.406.406 0 0 0-.582 0l-2.485 2.48a.417.417 0 0 0 0 .587l2.485 2.484a.412.412 0 0 0 .582 0 .41.41 0 0 0 0-.586L7.414 9.93l2.188-2.188a.41.41 0 0 0 0-.586zm0 0M14.57 7.156a.41.41 0 0 0-.586 0 .41.41 0 0 0 0 .586l2.188 2.188-2.188 2.191a.41.41 0 0 0 0 .586.42.42 0 0 0 .293.121c.106 0 .211-.043.293-.121l2.48-2.484a.41.41 0 0 0 0-.586zm0 0M13.172 5.816a.412.412 0 0 0-.527.254l-2.485 7.035a.417.417 0 0 0 .39.551c.173 0 .333-.11.391-.277l2.485-7.035a.417.417 0 0 0-.254-.528zm0 0"/>
</svg>
